X: 1
T:no name
R:slide
Z:id:hn-slide-55
M:6/8
K:A
e2e efe|d2f a2f|e2e efe|d2B B2A|e2e efe|d2f a2f|e2e efe|d3 d3:|
|:e2a f2a|e2a f2a|e2e efe|d2B B2A|e2a f2a|e2a f2a|e2e efe|d3 d3:|
